X:100
T: Brave Young Brian (with piano acc.)
H: Originally named "Brian the Brave", a title I later discovered
had already been used for a tune in the Roche collection.
C: BB
R: jig
Q: 1/8=320
M: 6/8
L: 1/8
V: 1 program 1 110 %fiddle
V: 2 program 1 01 volume=70 clef=bass m=D
K: G
[V:1] D | "G"GFG BAG | "C"efg "D"dBA | "G"GFG BAG | "Em"EAB "D"A2 D |
[V:2] z |G,,2[GBD]D,2 [GBD]|C,2[EGC]D,2[AFD]|G,,2[GBD]D,2 [GBD]|E,2[EGB]D,2[AFD]|
%
[V:1] "G"GFG BAG | "C"efg "D"def | "G"gdB "Am"cAF | "D"DEF "G"G2 :|
[V:2] G,,2[GBD]D,2 [GBD]|C,2[EGC]D,2[AFD]|G,,2[GBD]A,,2[ACE]|D,2[AFD][G,,2D,2B,2] :|
%
[V:1] e | "G"gfg "Am"aga | "G"bag "C"efg | "G"dBd gdB | "Em"GAB "D"A2 e |
[V:2] z |G,,2[GBD]A,,2[ACE]|G,,2[GBD]C,2[EGC]|G,,2[GBD]D,2[GBD]|E,2[EGB]D,2[AFD]|
%
[V:1] "G"gfg "Am"aga | "G"bag "Em"edB | "G"GAB "Am"AGE |"D"DEF "G"G2 :|
[V:2] G,,2[GBD]A,,2[ACE]|G,,2[GBD]E,2[EGB]|G,,2[GBD]A,,2[ACE]|D,2[AFD][G,,2D,2B,2] :|

%%%%%%%%%%%%%%%%%%%%%%%%%%%%%%%%%%%%%%%%%%%

